X:226
%%etbk:tnset id:70,pos:2,rep:3x,ant:
%%etbk:wsite http://www.thesession.org/tunes/display/26
%%etbk:pldat 2014-04-06T15:58,2014-02-26T17:51,2014-02-18T17:39,2013-11-19T15:14,2013-09-02T18:02,2013-05-06T18:03,2013-05-05T15:14
T: Donnybrook Fair
Z: Piano Box Version by Martin Fleischmann
H: Created 2013-02-19 /  Last Modified 2013-05-05
M: 6/8
L: 1/8
R: jig
K: Gmaj
|: "G"!1!G!2!G!1!G !2!AGA | !3!B!5!ee !4!d!3!B!2!A | !3!BBB !1!GAB | "D"!2!A!1!G!2!E !2!ED!2!E | 
"G"!1!GGG !2!AGA | !3!B!5!ee !4!d!3!B!2!A | !3!B2B !1!GAB | !2!AG!2!F !1!G3:|
|: "em"!5!gfe !4!fed | !3!eee !2!d!1!B!2!A | !1!B!3!ee d!1!B!2!A | !1!B!3!ee e2f|
|1!5!gfe !4!fed | !3!eee !2!d!1!B!2!A | "G"!3!B2B GAB | !2!AG!2!F !1!G2!4!f:|
|2 "G"!3!ggg !4!aga | !5!b!3!g!2!e !1!d!3!B!2!A | !3!B2B GAB | !2!AG!2!F !1!G3||


